Newaita-dark/apps/48/com.github.lainsce.yishu.svg

<svg height="48pt" viewBox="0 0 48 48" width="48pt" xmlns="http://www.w3.org/2000/svg" xmlns:xlink="http://www.w3.org/1999/xlink"><linearGradient id="a" gradientUnits="userSpaceOnUse" x1="23.814782" x2="23.814782" y1="42.0509035" y2="44.03546931253"><stop offset="0" stop-opacity=".27451"/><stop offset="1" stop-opacity="0"/></linearGradient><linearGradient id="b"><stop offset="0" stop-opacity=".313725"/><stop offset=".222222" stop-opacity=".27451"/><stop offset="1" stop-opacity="0"/></linearGradient><radialGradient id="c" cx="450.90894" cy="189.57936" gradientTransform="matrix(.00000026 -.117199 -.210958 -.00000015 78.195972 95.393002)" gradientUnits="userSpaceOnUse" r="21.166656" xlink:href="#b"/><radialGradient id="d" cx="450.90894" cy="189.57936" gradientTransform="matrix(-.00000026 .117199 .210958 .00000015 -30.566421 -11.291218)" gradientUnits="userSpaceOnUse" r="21.166656" xlink:href="#b"/><radialGradient id="e" cx="450.90894" cy="189.57936" gradientTransform="matrix(-.00000026 -.117199 .210958 -.00000015 -30.566421 95.393002)" gradientUnits="userSpaceOnUse" r="21.166656" xlink:href="#b"/><radialGradient id="f" cx="450.90894" cy="189.57936" gradientTransform="matrix(.00000026 .117199 -.210958 .00000015 78.195969 -11.291219)" gradientUnits="userSpaceOnUse" r="21.166656" xlink:href="#b"/><linearGradient id="g" gradientUnits="userSpaceOnUse" x1="15.87652368747" x2="15.87652368747" y1="42.0509015" y2="4.34415762506"><stop offset="0" stop-color="#9ccc65"/><stop offset="1" stop-color="#aed581"/></linearGradient><linearGradient id="h" gradientUnits="userSpaceOnUse" x1="23.814786" x2="23.814786" y1="42.0509015" y2="4.34415668747"><stop offset="0" stop-color="#bdbdbd"/><stop offset="1" stop-color="#e0e0e0"/></linearGradient><path d="m8.929688 41.902344h29.769531v2.207031h-29.769531zm0 0" fill="url(#a)"/><path d="m38.699219 42.050781h3.96875v-1.984375h-3.96875zm0 0" fill="url(#c)"/><path d="m8.929688 42.050781h-3.96875v1.984375h3.96875zm0 0" fill="url(#d)"/><path d="m8.929688 42.050781h-3.96875v-1.984375h3.96875zm0 0" fill="url(#e)"/><path d="m38.699219 42.050781h3.96875v1.984375h-3.96875zm0 0" fill="url(#f)"/><path d="m6.945312 4.34375h33.738282c1.097656 0 1.984375.890625 1.984375 1.984375v33.738281c0 1.097656-.886719 1.984375-1.984375 1.984375h-33.738282c-1.09375 0-1.984374-.886719-1.984374-1.984375v-33.738281c0-1.09375.890624-1.984375 1.984374-1.984375zm0 0" fill="url(#g)"/><path d="m6.945312 4.34375c-1.097656 0-1.984374.886719-1.984374 1.984375v.25c0-1.101563.886718-1.988281 1.984374-1.984375h33.738282c1.097656-.003906 1.984375.882812 1.984375 1.984375v-.25c0-1.097656-.886719-1.984375-1.984375-1.984375zm0 0" fill="#e6e6e6" fill-opacity=".392157"/><path d="m6.945312 42.050781c-1.097656 0-1.984374-.886719-1.984374-1.984375v-.25c0 1.101563.886718 1.988282 1.984374 1.988282h33.738282c1.097656 0 1.984375-.886719 1.984375-1.988282v.25c0 1.097656-.886719 1.984375-1.984375 1.984375zm0 0" fill-opacity=".196078"/><path d="m74.076259-168.671091h359.840637c11.707216 0 21.164646 9.499093 21.164646 21.164646v359.840637c0 11.707215-9.45743 21.164645-21.164646 21.164645h-359.840637c-11.665552 0-21.164645-9.45743-21.164645-21.164645v-359.840637c0-11.665553 9.499093-21.164646 21.164645-21.164646zm0 0" fill="none" stroke="#212121" stroke-linecap="round" stroke-width="3" transform="matrix(.093759 0 0 .093759 0 20.158175)"/><path d="m35.683594 12.269531c-.652344.015625-1.25.355469-1.605469.902344l-10.640625 15.960937-8.222656-7.402343c-.523438-.484375-1.265625-.648438-1.945313-.429688-.675781.214844-1.183593.78125-1.328125 1.476563-.148437.699218.09375 1.417968.628906 1.886718l9.921876 8.933594c.429687.382813 1 .5625 1.570312.488282.566406-.070313 1.078125-.386719 1.394531-.863282l11.910157-17.859375c.417968-.613281.460937-1.410156.105468-2.0625-.355468-.652343-1.046875-1.050781-1.789062-1.03125zm0 0" fill="url(#h)"/><path d="m35.683594 12.269531c-.652344.015625-1.25.355469-1.605469.902344l-10.640625 15.960937-8.222656-7.402343c-.628906-.578125-1.558594-.6875-2.304688-.273438-.746094.417969-1.136718 1.265625-.972656 2.105469.136719-.703125.640625-1.277344 1.320312-1.5.679688-.222656 1.429688-.058594 1.957032.425781l8.222656 7.402344 10.640625-15.960937c.355469-.546876.953125-.886719 1.605469-.902344.964844-.027344 1.804687.648437 1.992187 1.59375.113281-.589844-.042969-1.195313-.429687-1.652344-.390625-.457031-.960938-.714844-1.5625-.699219zm0 0" fill="#fff"/><path d="m37.566406 15.007812c-.054687.128907-.121094.257813-.199218.375l-11.910157 17.859376c-.316406.476562-.828125.792968-1.394531.863281-.570312.074219-1.140625-.105469-1.570312-.488281l-9.921876-8.933594c-.230468-.199219-.410156-.453125-.523437-.738282-.316406.78125-.105469 1.671876.523437 2.226563l9.921876 8.933594c.429687.382812 1 .5625 1.570312.488281.566406-.070312 1.078125-.386719 1.394531-.863281l11.910157-17.859375c.375-.546875.449218-1.25.199218-1.863282zm0 0" fill-opacity=".235294"/><path d="m380.588656-84.137497c-6.957669.166651-13.332061 3.791305-17.123365 9.624081l-113.489163 170.233744-87.699958-78.950794c-5.5828-5.166174-13.498711-6.916006-20.748019-4.582896-7.207645 2.291448-12.623794 8.332538-14.165314 15.748496-1.583182 7.457621.999905 15.123556 6.707693 20.123079l105.823228 95.282567c4.582896 4.082944 10.665648 5.999427 16.748401 5.207836 6.041089-.749928 11.498901-4.124606 14.873579-9.207454l127.029536-190.48181c4.457908-6.541042 4.916197-15.04023 1.124893-21.997899-3.791305-6.957669-11.165601-11.207263-19.081511-10.99895zm0 0" fill="none" stroke="#212121" stroke-linecap="round" stroke-linejoin="round" stroke-width="3" transform="matrix(.093759 0 0 .093759 0 20.158175)"/></svg>

<?xml version="1.0" encoding="UTF-8"?>
<svg xmlns="http://www.w3.org/2000/svg" xmlns:xlink="http://www.w3.org/1999/xlink" width="48pt" height="48pt" viewBox="0 0 48 48" version="1.1">
<defs>
<linearGradient id="linear0" gradientUnits="userSpaceOnUse" x1="254" y1="233.5" x2="254" y2="254.66667" gradientTransform="matrix(0.093759,0,0,0.093759,-0.00000375036,20.158177)">
<stop offset="0" style="stop-color:rgb(0%,0%,0%);stop-opacity:0.27451;"/>
<stop offset="1" style="stop-color:rgb(0%,0%,0%);stop-opacity:0;"/>
</linearGradient>
<radialGradient id="radial0" gradientUnits="userSpaceOnUse" cx="450.90894" cy="189.57936" fx="450.90894" fy="189.57936" r="21.166656" gradientTransform="matrix(0.000000261256,-0.117199,-0.210958,-0.000000152308,78.195972,95.393002)">
<stop offset="0" style="stop-color:rgb(0%,0%,0%);stop-opacity:0.313725;"/>
<stop offset="0.222222" style="stop-color:rgb(0%,0%,0%);stop-opacity:0.27451;"/>
<stop offset="1" style="stop-color:rgb(0%,0%,0%);stop-opacity:0;"/>
</radialGradient>
<radialGradient id="radial1" gradientUnits="userSpaceOnUse" cx="450.90894" cy="189.57936" fx="450.90894" fy="189.57936" r="21.166656" gradientTransform="matrix(-0.000000261256,0.117199,0.210958,0.000000152308,-30.566421,-11.291218)">
<stop offset="0" style="stop-color:rgb(0%,0%,0%);stop-opacity:0.313725;"/>
<stop offset="0.222222" style="stop-color:rgb(0%,0%,0%);stop-opacity:0.27451;"/>
<stop offset="1" style="stop-color:rgb(0%,0%,0%);stop-opacity:0;"/>
</radialGradient>
<radialGradient id="radial2" gradientUnits="userSpaceOnUse" cx="450.90894" cy="189.57936" fx="450.90894" fy="189.57936" r="21.166656" gradientTransform="matrix(-0.000000261256,-0.117199,0.210958,-0.000000152308,-30.566421,95.393002)">
<stop offset="0" style="stop-color:rgb(0%,0%,0%);stop-opacity:0.313725;"/>
<stop offset="0.222222" style="stop-color:rgb(0%,0%,0%);stop-opacity:0.27451;"/>
<stop offset="1" style="stop-color:rgb(0%,0%,0%);stop-opacity:0;"/>
</radialGradient>
<radialGradient id="radial3" gradientUnits="userSpaceOnUse" cx="450.90894" cy="189.57936" fx="450.90894" fy="189.57936" r="21.166656" gradientTransform="matrix(0.000000261256,0.117199,-0.210958,0.000000152308,78.195969,-11.291219)">
<stop offset="0" style="stop-color:rgb(0%,0%,0%);stop-opacity:0.313725;"/>
<stop offset="0.222222" style="stop-color:rgb(0%,0%,0%);stop-opacity:0.27451;"/>
<stop offset="1" style="stop-color:rgb(0%,0%,0%);stop-opacity:0;"/>
</radialGradient>
<linearGradient id="linear1" gradientUnits="userSpaceOnUse" x1="169.33333" y1="233.5" x2="169.33333" y2="-168.66666" gradientTransform="matrix(0.093759,0,0,0.093759,0,20.158175)">
<stop offset="0" style="stop-color:rgb(61.176471%,80%,39.607843%);stop-opacity:1;"/>
<stop offset="1" style="stop-color:rgb(68.235294%,83.529412%,50.588235%);stop-opacity:1;"/>
</linearGradient>
<linearGradient id="linear2" gradientUnits="userSpaceOnUse" x1="254" y1="233.5" x2="254" y2="-168.66667" gradientTransform="matrix(0.093759,0,0,0.093759,0,20.158175)">
<stop offset="0" style="stop-color:rgb(74.117647%,74.117647%,74.117647%);stop-opacity:1;"/>
<stop offset="1" style="stop-color:rgb(87.843137%,87.843137%,87.843137%);stop-opacity:1;"/>
</linearGradient>
</defs>
<g id="surface1">
<path style=" stroke:none;fill-rule:nonzero;fill:url(#linear0);" d="M 8.929688 41.902344 L 38.699219 41.902344 L 38.699219 44.109375 L 8.929688 44.109375 Z M 8.929688 41.902344 "/>
<path style=" stroke:none;fill-rule:nonzero;fill:url(#radial0);" d="M 38.699219 42.050781 L 42.667969 42.050781 L 42.667969 40.066406 L 38.699219 40.066406 Z M 38.699219 42.050781 "/>
<path style=" stroke:none;fill-rule:nonzero;fill:url(#radial1);" d="M 8.929688 42.050781 L 4.960938 42.050781 L 4.960938 44.035156 L 8.929688 44.035156 Z M 8.929688 42.050781 "/>
<path style=" stroke:none;fill-rule:nonzero;fill:url(#radial2);" d="M 8.929688 42.050781 L 4.960938 42.050781 L 4.960938 40.066406 L 8.929688 40.066406 Z M 8.929688 42.050781 "/>
<path style=" stroke:none;fill-rule:nonzero;fill:url(#radial3);" d="M 38.699219 42.050781 L 42.667969 42.050781 L 42.667969 44.035156 L 38.699219 44.035156 Z M 38.699219 42.050781 "/>
<path style=" stroke:none;fill-rule:nonzero;fill:url(#linear1);" d="M 6.945312 4.34375 L 40.683594 4.34375 C 41.78125 4.34375 42.667969 5.234375 42.667969 6.328125 L 42.667969 40.066406 C 42.667969 41.164062 41.78125 42.050781 40.683594 42.050781 L 6.945312 42.050781 C 5.851562 42.050781 4.960938 41.164062 4.960938 40.066406 L 4.960938 6.328125 C 4.960938 5.234375 5.851562 4.34375 6.945312 4.34375 Z M 6.945312 4.34375 "/>
<path style=" stroke:none;fill-rule:nonzero;fill:rgb(90.196078%,90.196078%,90.196078%);fill-opacity:0.392157;" d="M 6.945312 4.34375 C 5.847656 4.34375 4.960938 5.230469 4.960938 6.328125 L 4.960938 6.578125 C 4.960938 5.476562 5.847656 4.589844 6.945312 4.59375 L 40.683594 4.59375 C 41.78125 4.589844 42.667969 5.476562 42.667969 6.578125 L 42.667969 6.328125 C 42.667969 5.230469 41.78125 4.34375 40.683594 4.34375 Z M 6.945312 4.34375 "/>
<path style=" stroke:none;fill-rule:nonzero;fill:rgb(0%,0%,0%);fill-opacity:0.196078;" d="M 6.945312 42.050781 C 5.847656 42.050781 4.960938 41.164062 4.960938 40.066406 L 4.960938 39.816406 C 4.960938 40.917969 5.847656 41.804688 6.945312 41.804688 L 40.683594 41.804688 C 41.78125 41.804688 42.667969 40.917969 42.667969 39.816406 L 42.667969 40.066406 C 42.667969 41.164062 41.78125 42.050781 40.683594 42.050781 Z M 6.945312 42.050781 "/>
<path style="fill:none;stroke-width:3;stroke-linecap:round;stroke-linejoin:miter;stroke:rgb(12.941176%,12.941176%,12.941176%);stroke-opacity:1;stroke-miterlimit:4;" d="M 74.076259 -168.671091 L 433.916896 -168.671091 C 445.624112 -168.671091 455.081542 -159.171998 455.081542 -147.506445 L 455.081542 212.334192 C 455.081542 224.041407 445.624112 233.498837 433.916896 233.498837 L 74.076259 233.498837 C 62.410707 233.498837 52.911614 224.041407 52.911614 212.334192 L 52.911614 -147.506445 C 52.911614 -159.171998 62.410707 -168.671091 74.076259 -168.671091 Z M 74.076259 -168.671091 " transform="matrix(0.093759,0,0,0.093759,0,20.158175)"/>
<path style=" stroke:none;fill-rule:nonzero;fill:url(#linear2);" d="M 35.683594 12.269531 C 35.03125 12.285156 34.433594 12.625 34.078125 13.171875 L 23.4375 29.132812 L 15.214844 21.730469 C 14.691406 21.246094 13.949219 21.082031 13.269531 21.300781 C 12.59375 21.515625 12.085938 22.082031 11.941406 22.777344 C 11.792969 23.476562 12.035156 24.195312 12.570312 24.664062 L 22.492188 33.597656 C 22.921875 33.980469 23.492188 34.160156 24.0625 34.085938 C 24.628906 34.015625 25.140625 33.699219 25.457031 33.222656 L 37.367188 15.363281 C 37.785156 14.75 37.828125 13.953125 37.472656 13.300781 C 37.117188 12.648438 36.425781 12.25 35.683594 12.269531 Z M 35.683594 12.269531 "/>
<path style=" stroke:none;fill-rule:nonzero;fill:rgb(100%,100%,100%);fill-opacity:1;" d="M 35.683594 12.269531 C 35.03125 12.285156 34.433594 12.625 34.078125 13.171875 L 23.4375 29.132812 L 15.214844 21.730469 C 14.585938 21.152344 13.65625 21.042969 12.910156 21.457031 C 12.164062 21.875 11.773438 22.722656 11.9375 23.5625 C 12.074219 22.859375 12.578125 22.285156 13.257812 22.0625 C 13.9375 21.839844 14.6875 22.003906 15.214844 22.488281 L 23.4375 29.890625 L 34.078125 13.929688 C 34.433594 13.382812 35.03125 13.042969 35.683594 13.027344 C 36.648438 13 37.488281 13.675781 37.675781 14.621094 C 37.789062 14.03125 37.632812 13.425781 37.246094 12.96875 C 36.855469 12.511719 36.285156 12.253906 35.683594 12.269531 Z M 35.683594 12.269531 "/>
<path style=" stroke:none;fill-rule:nonzero;fill:rgb(0%,0%,0%);fill-opacity:0.235294;" d="M 37.566406 15.007812 C 37.511719 15.136719 37.445312 15.265625 37.367188 15.382812 L 25.457031 33.242188 C 25.140625 33.71875 24.628906 34.035156 24.0625 34.105469 C 23.492188 34.179688 22.921875 34 22.492188 33.617188 L 12.570312 24.683594 C 12.339844 24.484375 12.160156 24.230469 12.046875 23.945312 C 11.730469 24.726562 11.941406 25.617188 12.570312 26.171875 L 22.492188 35.105469 C 22.921875 35.488281 23.492188 35.667969 24.0625 35.59375 C 24.628906 35.523438 25.140625 35.207031 25.457031 34.730469 L 37.367188 16.871094 C 37.742188 16.324219 37.816406 15.621094 37.566406 15.007812 Z M 37.566406 15.007812 "/>
<path style="fill:none;stroke-width:3;stroke-linecap:round;stroke-linejoin:round;stroke:rgb(12.941176%,12.941176%,12.941176%);stroke-opacity:1;stroke-miterlimit:4;" d="M 380.588656 -84.137497 C 373.630987 -83.970846 367.256595 -80.346192 363.465291 -74.513416 L 249.976128 95.720328 L 162.27617 16.769534 C 156.69337 11.60336 148.777459 9.853528 141.528151 12.186638 C 134.320506 14.478086 128.904357 20.519176 127.362837 27.935134 C 125.779655 35.392755 128.362742 43.05869 134.07053 48.058213 L 239.893758 143.34078 C 244.476654 147.423724 250.559406 149.340207 256.642159 148.548616 C 262.683248 147.798688 268.14106 144.42401 271.515738 139.341162 L 398.545274 -51.140648 C 403.003182 -57.68169 403.461471 -66.180878 399.670167 -73.138547 C 395.878862 -80.096216 388.504566 -84.34581 380.588656 -84.137497 Z M 380.588656 -84.137497 " transform="matrix(0.093759,0,0,0.093759,0,20.158175)"/>
</g>
</svg>
